X: 1620
T: Joe Yates Second Reel
B: australian traditional tunes wiki
M:4/4
L:1/8
R: Reel
Q: 1/4=100
K:D
V:1 
A|:"D"DEFG A2F2|DEFG A2A2|DEFG A2F2|d2F2 "A7"E4|"D"DEFG A2F2|DEFG A2A2|"G"d2cB"D"A2F2|"A7"E2D2 "D"D4:|
|:"D"d2cB "A7"A2Bc|"D"d2cB "A7"A2Bc|"D"d2cBA2F2|F2E2 "A7"E2A2|"D"d2cB "A7"A2Bc|"D"d2cB "A7"A2Bc|"G"d2B2"D"A2F2|"A7"E2D2"D"D4:|
% abcbook-tune_id 6342d53ac0f244f19bebdfe4


% abcbook-boost 0
% abcbook-tablature 
% abcbook-transpose 
% abcbook-lastupdated 1665324374422
% abcbook-soundfonts 
% abcbook-repeats 1
% NFF Book 2014

